X:1
T:The Gooey-Duck Song
M:4/4
L:1/8
K:C
 GG| GC CC C2 DE| FF FF F2 EF| GG GG G2 GE| DC DE D2| EF| GC CC C2 DE|\
 FF FF F2 EF| GG GG G2 GG| Ac Bd| c4| ee c2 dd B2| cd cB A2 GG| c2 AA GE C2|\
 Ac Bd| c4||
